vendor/shopware/storefront/Resources/app/storefront/dist/assets/icon/solid/h-collapse.svg

<svg xmlns="http://www.w3.org/2000/svg" width="16" height="16" viewBox="0 0 16 16">
  <path fill="#758CA3" fill-rule="evenodd" d="M14.7071068,11.2928932 C15.0976311,11.6834175 15.0976311,12.3165825 14.7071068,12.7071068 C14.3165825,13.0976311 13.6834175,13.0976311 13.2928932,12.7071068 L9.29289322,8.70710678 C8.90236893,8.31658249 8.90236893,7.68341751 9.29289322,7.29289322 L13.2928932,3.29289322 C13.6834175,2.90236893 14.3165825,2.90236893 14.7071068,3.29289322 C15.0976311,3.68341751 15.0976311,4.31658249 14.7071068,4.70710678 L11.4142136,8 L14.7071068,11.2928932 Z M4.58578644,8 L1.29289322,4.70710678 C0.902368927,4.31658249 0.902368927,3.68341751 1.29289322,3.29289322 C1.68341751,2.90236893 2.31658249,2.90236893 2.70710678,3.29289322 L6.70710678,7.29289322 C7.09763107,7.68341751 7.09763107,8.31658249 6.70710678,8.70710678 L2.70710678,12.7071068 C2.31658249,13.0976311 1.68341751,13.0976311 1.29289322,12.7071068 C0.902368927,12.3165825 0.902368927,11.6834175 1.29289322,11.2928932 L4.58578644,8 Z"/>
</svg>

<svg xmlns="http://www.w3.org/2000/svg" width="16" height="16" viewBox="0 0 16 16"><path fill="#758CA3" fill-rule="evenodd" d="M14.7071 11.2929c.3905.3905.3905 1.0237 0 1.4142-.3905.3905-1.0237.3905-1.4142 0l-4-4c-.3905-.3905-.3905-1.0237 0-1.4142l4-4c.3905-.3905 1.0237-.3905 1.4142 0 .3905.3905.3905 1.0237 0 1.4142L11.4142 8l3.293 3.2929zM4.5858 8l-3.293-3.2929c-.3904-.3905-.3904-1.0237 0-1.4142.3906-.3905 1.0238-.3905 1.4143 0l4 4c.3905.3905.3905 1.0237 0 1.4142l-4 4c-.3905.3905-1.0237.3905-1.4142 0-.3905-.3905-.3905-1.0237 0-1.4142L4.5858 8z"/></svg>
